src/xmb/monochrome/Source Code - Microsoft - Xbox 360.svg

<svg xmlns="http://www.w3.org/2000/svg" xml:space="preserve" viewBox="0 0 64 64"><style>.st0{fill:#fff}</style><g id="pad"><path d="M55 20.53c-.72-1.41-1.3-3-2-3.93-.71-4.02-6.34-3.02-8.01-2.92-.26.01-.99.96-.99.96-1.51.19-2.39.48-3 .98-.83.68-1.98 1.64-3 1.96-3.32 1.06-6 .98-6 .98s-2.68.08-6-.98c-1.02-.33-2.17-1.29-3-1.96-.61-.5-1.49-.79-3-.98 0 0-.73-.95-.99-.96-1.67-.1-7.3-1.1-8.01 2.92-.7.93-1.28 2.52-2 3.93-1.93 3.78-4 14.08-4 22.59 0 0 .4 13.56 11 3.93 0 0 7.32-4.55 16-4.55s16 4.55 16 4.55c10.6 9.63 11-3.93 11-3.93 0-8.51-2.07-18.81-4-22.59M15 26.5c-2.21 0-4-1.79-4-4s1.79-4 4-4 4 1.79 4 4-1.79 4-4 4m6.5 11.29A5.52 5.52 0 0 1 17.71 34h1.79c1.1 0 2 .9 2 2zm0-8.79c0 1.1-.9 2-2 2h-1.79a5.52 5.52 0 0 1 3.79-3.79zm17-8c.83 0 1.5.67 1.5 1.5s-.67 1.5-1.5 1.5-1.5-.67-1.5-1.5.67-1.5 1.5-1.5M24 22.5c0-.83.67-1.5 1.5-1.5s1.5.67 1.5 1.5-.67 1.5-1.5 1.5-1.5-.67-1.5-1.5m.5 15.29V36c0-1.1.9-2 2-2h1.79a5.52 5.52 0 0 1-3.79 3.79m2-6.79c-1.1 0-2-.9-2-2v-1.79c1.83.52 3.27 1.96 3.79 3.79zm5.5-4.5c-1.93 0-3.5-1.57-3.5-3.5s1.57-3.5 3.5-3.5 3.5 1.57 3.5 3.5-1.57 3.5-3.5 3.5m8 10c-2.21 0-4-1.79-4-4s1.79-4 4-4 4 1.79 4 4-1.79 4-4 4m4-12c-1.1 0-2-.9-2-2s.9-2 2-2 2 .9 2 2-.9 2-2 2m4.5 4.5c-1.1 0-2-.9-2-2s.9-2 2-2 2 .9 2 2-.9 2-2 2m0-9c-1.1 0-2-.9-2-2s.9-2 2-2 2 .9 2 2-.9 2-2 2m4.5 4.5c-1.1 0-2-.9-2-2s.9-2 2-2 2 .9 2 2-.9 2-2 2" class="st0"/><circle cx="32" cy="23" r="3" class="st0"/></g><path id="src" d="M28.3 5.92 22.82 8.5l5.48 2.26v1.48L21 9.02v-.9l7.3-3.65zm2.48 7.96h-1.65L33.2 2.95h1.64zM43 9.02l-7.29 3.22v-1.48l5.47-2.26-5.47-2.58V4.47L43 8.12z" class="st0"/></svg>

<?xml version="1.0" encoding="utf-8"?>
<svg version="1.1" xmlns="http://www.w3.org/2000/svg" xmlns:xlink="http://www.w3.org/1999/xlink" x="0px" y="0px" viewBox="0 0 64 64" style="enable-background:new 0 0 64 64;" xml:space="preserve">
<style type="text/css">
	.st0{fill:#FFFFFF;}
</style>
<g id="pad">
	<path class="st0" d="M55,20.53c-0.72-1.41-1.3-3-2-3.93c-0.71-4.02-6.34-3.02-8.01-2.92C44.73,13.69,44,14.64,44,14.64c-1.51,0.19-2.39,0.48-3,0.98c-0.83,0.68-1.98,1.64-3,1.96c-3.32,1.06-6,0.98-6,0.98s-2.68,0.08-6-0.98c-1.02-0.33-2.17-1.29-3-1.96c-0.61-0.5-1.49-0.79-3-0.98c0,0-0.73-0.95-0.99-0.96c-1.67-0.1-7.3-1.1-8.01,2.92c-0.7,0.93-1.28,2.52-2,3.93c-1.93,3.78-4,14.08-4,22.59c0,0,0.4,13.56,11,3.93c0,0,7.32-4.55,16-4.55s16,4.55,16,4.55c10.6,9.63,11-3.93,11-3.93C59,34.61,56.93,24.31,55,20.53z M15,26.5c-2.21,0-4-1.79-4-4c0-2.21,1.79-4,4-4s4,1.79,4,4C19,24.71,17.21,26.5,15,26.5z M21.5,37.79c-1.83-0.52-3.27-1.96-3.79-3.79h1.79c1.1,0,2,0.9,2,2V37.79z M21.5,29c0,1.1-0.9,2-2,2h-1.79c0.52-1.83,1.96-3.27,3.79-3.79V29z M38.5,21c0.83,0,1.5,0.67,1.5,1.5S39.33,24,38.5,24S37,23.33,37,22.5S37.67,21,38.5,21z M24,22.5c0-0.83,0.67-1.5,1.5-1.5s1.5,0.67,1.5,1.5S26.33,24,25.5,24S24,23.33,24,22.5z M24.5,37.79V36c0-1.1,0.9-2,2-2h1.79C27.77,35.83,26.33,37.27,24.5,37.79z M26.5,31c-1.1,0-2-0.9-2-2v-1.79c1.83,0.52,3.27,1.96,3.79,3.79H26.5z M32,26.5c-1.93,0-3.5-1.57-3.5-3.5s1.57-3.5,3.5-3.5s3.5,1.57,3.5,3.5S33.93,26.5,32,26.5z M40,36.5c-2.21,0-4-1.79-4-4c0-2.21,1.79-4,4-4s4,1.79,4,4C44,34.71,42.21,36.5,40,36.5z M44,24.5c-1.1,0-2-0.9-2-2c0-1.1,0.9-2,2-2s2,0.9,2,2C46,23.6,45.1,24.5,44,24.5z M48.5,29c-1.1,0-2-0.9-2-2c0-1.1,0.9-2,2-2s2,0.9,2,2C50.5,28.1,49.6,29,48.5,29z M48.5,20c-1.1,0-2-0.9-2-2c0-1.1,0.9-2,2-2s2,0.9,2,2C50.5,19.1,49.6,20,48.5,20z M53,24.5c-1.1,0-2-0.9-2-2c0-1.1,0.9-2,2-2s2,0.9,2,2C55,23.6,54.1,24.5,53,24.5z"/>
	<circle class="st0" cx="32" cy="23" r="3"/>
</g>
<g id="src">
	<polygon class="st0" points="28.3,5.92 22.82,8.5 28.3,10.76 28.3,12.24 21,9.02 21,8.12 28.3,4.47"/>
	<polygon class="st0" points="30.78,13.88 29.13,13.88 33.2,2.95 34.84,2.95"/>
	<polygon class="st0" points="43,9.02 35.71,12.24 35.71,10.76 41.18,8.5 35.71,5.92 35.71,4.47 43,8.12"/>
</g>
</svg>
